X:11
T:It Came Upon a Midnight Clear
F:http://trillian.mit.edu/~jc/music/abc/mirror/LesterBailey/It_Came_Upon_a_Midnight_Clear.abc	 2021-12-18 212155 UT
K:Gmaj
M:4/4
M:4/4
L:1/8
M:4/4
GA | B2 A2 G2 AB | c2 B2 A2 d2 | d2 B2 cd e2 | d6 Bc |
d2 d2 B2 G2 | c2 B2 A2 GA | Bc d2 B2 A2 | G6 ||
W:It came upon a midnight clear
W:That glorious song of old
W:From angels bending near the earth
W:To touch their harps of gold
W:
W:Peace on the earth, good will to men
W:From heaven's all gracious King
W:The world in solemn stillness lay
W:To hear the angels sing
W:
W:Still through the cloven skies they come
W:With peaceful wings unfurled
W:And still their heavenly music floats
W:O'er all the weary world
W:
W:Above its sad and lowly plains
W:They bend on hovering wing
W:And ever o'er its Babel sounds
W:The blessed angels sing
W:
W:All ye beneath life's crushing load
W:Whose forms are bending low
W:Who toil along the climbing way
W:With painful steps and slow
W:
W:Look now for glad and golden hours
W:Come swiftly on the wing
W:O rest beside the weary road
W:And hear the angels sing
W:And hear the angels sing

%%newpage

